public/style/workarea/images/icons/exe-settings-icon-green.svg

<svg fill="none" height="20" viewBox="0 0 21 20" width="21" xmlns="http://www.w3.org/2000/svg" xmlns:xlink="http://www.w3.org/1999/xlink"><clipPath id="a"><path d="m.014648 0h20v20h-20z"/></clipPath><g clip-path="url(#a)" stroke="#0ba1a1" stroke-linecap="round" stroke-linejoin="round" stroke-width="1.5"><path d="m10.0146 12.5c1.3808 0 2.5-1.1193 2.5-2.5 0-1.38071-1.1192-2.5-2.5-2.5-1.38066 0-2.49995 1.11929-2.49995 2.5 0 1.3807 1.11929 2.5 2.49995 2.5z"/><path d="m16.1812 12.5c-.1109.2514-.144.5302-.095.8005s.1779.5198.37.7162l.05.05c.155.1548.2779.3386.3618.5409s.127.4192.127.6382c0 .2191-.0431.4359-.127.6383-.0839.2023-.2068.3861-.3618.5409-.1548.155-.3386.2779-.5409.3618-.2023.0838-.4192.127-.6382.127-.2191 0-.4359-.0432-.6383-.127-.2023-.0839-.3861-.2068-.5409-.3618l-.05-.05c-.1964-.1921-.4458-.321-.7162-.37-.2703-.049-.5491-.0159-.8005.095-.2464.1056-.4566.281-.6047.5046s-.2275.4856-.2286.7537v.1417c0 .442-.1756.866-.4882 1.1785-.3125.3126-.7364.4882-1.1785.4882-.44199 0-.86592-.1756-1.17848-.4882-.31256-.3125-.48815-.7365-.48815-1.1785v-.075c-.00646-.2758-.09574-.5433-.25624-.7677-.16051-.2245-.38482-.3954-.64376-.4906-.25135-.111-.53016-.144-.80049-.095s-.51978.1779-.71618.37l-.05.05c-.15479.1549-.3386.2779-.54093.3617-.20233.0839-.41921.1271-.63824.1271-.21902 0-.4359-.0432-.63823-.1271-.20233-.0838-.38614-.2068-.54093-.3617-.15496-.1548-.2779-.3386-.36177-.541-.08387-.2023-.12704-.4192-.12704-.6382s.04317-.4359.12704-.6382c.08387-.2024.20681-.3862.36177-.541l.05-.05c.19211-.1964.32098-.4458.37-.7161.04902-.2704.01593-.5492-.095-.8005-.10564-.2465-.28104-.4567-.50462-.6048-.22357-.148-.48556-.2275-.75372-.2286h-.14166c-.44203 0-.86595-.1756-1.17851-.4881-.31256-.3126-.48816-.7365-.48816-1.1785 0-.44205.1756-.86597.48816-1.17853.31256-.31257.73648-.48816 1.17851-.48816h.075c.27583-.00645.54333-.09574.76775-.25624.22441-.16051.39534-.38481.49058-.64376.11093-.25135.14402-.53016.095-.80049-.04901-.27033-.17789-.51978-.37-.71618l-.05-.05c-.15496-.15479-.27789-.3386-.36177-.54093-.08387-.20233-.12704-.41921-.12704-.63823 0-.21903.04317-.43591.12704-.63824.08388-.20233.20681-.38614.36177-.54093.15479-.15496.3386-.27789.54093-.36177.20233-.08387.41921-.12704.63824-.12704.21902 0 .4359.04317.63823.12704.20233.08388.38614.20681.54093.36177l.05.05c.1964.19211.44585.32099.71618.37.27033.04902.54914.01593.80049-.095h.06667c.24647-.10564.45668-.28104.60474-.50461.14806-.22358.22752-.48557.22859-.75372v-.14167c0-.44203.17559-.86595.48816-1.17851.31256-.31256.73648-.488156 1.17854-.488156.442 0 .8659.175596 1.1785.488156.3125.31256.4881.73648.4881 1.17851v.075c.0011.26816.0806.53015.2286.75372.1481.22358.3583.39898.6048.50461.2513.11093.5301.14402.8005.09501.2703-.04902.5197-.17789.7161-.37001l.05-.05c.1548-.15496.3386-.27789.541-.36176.2023-.08388.4192-.12705.6382-.12705s.4359.04317.6382.12705c.2024.08387.3862.2068.541.36176.1549.15479.2779.33861.3617.54094.0839.20233.1271.4192.1271.63823s-.0432.4359-.1271.63823c-.0838.20233-.2068.38615-.3617.54094l-.05.05c-.1921.1964-.321.44584-.37.71617-.0491.27033-.016.54915.095.80049v.06667c.1056.24647.281.45668.5046.60474.2236.14807.4855.22752.7537.22859h.1417c.442 0 .8659.1756 1.1785.48816.3125.31256.4881.73648.4881 1.1785 0 .442-.1756.866-.4881 1.1785-.3126.3126-.7365.4882-1.1785.4882h-.075c-.2682.001-.5302.0805-.7538.2286-.2235.148-.3989.3582-.5046.6047z"/></g></svg>

<svg width="21" height="20" viewBox="0 0 21 20" fill="none" xmlns="http://www.w3.org/2000/svg">
<g clip-path="url(#clip0_14_488)">
<path d="M10.0146 12.5C11.3954 12.5 12.5146 11.3807 12.5146 10C12.5146 8.61929 11.3954 7.5 10.0146 7.5C8.63394 7.5 7.51465 8.61929 7.51465 10C7.51465 11.3807 8.63394 12.5 10.0146 12.5Z" stroke="#0BA1A1" stroke-width="1.5" stroke-linecap="round" stroke-linejoin="round"/>
<path d="M16.1812 12.5C16.0703 12.7514 16.0372 13.0302 16.0862 13.3005C16.1352 13.5708 16.2641 13.8203 16.4562 14.0167L16.5062 14.0667C16.6612 14.2215 16.7841 14.4053 16.868 14.6076C16.9519 14.8099 16.995 15.0268 16.995 15.2458C16.995 15.4649 16.9519 15.6817 16.868 15.8841C16.7841 16.0864 16.6612 16.2702 16.5062 16.425C16.3514 16.58 16.1676 16.7029 15.9653 16.7868C15.763 16.8706 15.5461 16.9138 15.3271 16.9138C15.108 16.9138 14.8912 16.8706 14.6888 16.7868C14.4865 16.7029 14.3027 16.58 14.1479 16.425L14.0979 16.375C13.9015 16.1829 13.6521 16.054 13.3817 16.005C13.1114 15.956 12.8326 15.9891 12.5812 16.1C12.3348 16.2056 12.1246 16.381 11.9765 16.6046C11.8284 16.8282 11.749 17.0902 11.7479 17.3583V17.5C11.7479 17.942 11.5723 18.366 11.2597 18.6785C10.9472 18.9911 10.5233 19.1667 10.0812 19.1667C9.63921 19.1667 9.21528 18.9911 8.90272 18.6785C8.59016 18.366 8.41457 17.942 8.41457 17.5V17.425C8.40811 17.1492 8.31883 16.8817 8.15833 16.6573C7.99782 16.4328 7.77351 16.2619 7.51457 16.1667C7.26322 16.0557 6.98441 16.0227 6.71408 16.0717C6.44375 16.1207 6.1943 16.2496 5.9979 16.4417L5.9479 16.4917C5.79311 16.6466 5.6093 16.7696 5.40697 16.8534C5.20464 16.9373 4.98776 16.9805 4.76873 16.9805C4.54971 16.9805 4.33283 16.9373 4.1305 16.8534C3.92817 16.7696 3.74436 16.6466 3.58957 16.4917C3.43461 16.3369 3.31167 16.1531 3.2278 15.9507C3.14393 15.7484 3.10076 15.5315 3.10076 15.3125C3.10076 15.0935 3.14393 14.8766 3.2278 14.6743C3.31167 14.4719 3.43461 14.2881 3.58957 14.1333L3.63957 14.0833C3.83168 13.8869 3.96055 13.6375 4.00957 13.3672C4.05859 13.0968 4.0255 12.818 3.91457 12.5667C3.80893 12.3202 3.63353 12.11 3.40995 11.9619C3.18638 11.8139 2.92439 11.7344 2.65623 11.7333H2.51457C2.07254 11.7333 1.64862 11.5577 1.33606 11.2452C1.0235 10.9326 0.8479 10.5087 0.8479 10.0667C0.8479 9.62465 1.0235 9.20073 1.33606 8.88817C1.64862 8.5756 2.07254 8.40001 2.51457 8.40001H2.58957C2.8654 8.39356 3.1329 8.30427 3.35732 8.14377C3.58173 7.98326 3.75266 7.75896 3.8479 7.50001C3.95883 7.24866 3.99192 6.96985 3.9429 6.69952C3.89389 6.42919 3.76501 6.17974 3.5729 5.98334L3.5229 5.93334C3.36794 5.77855 3.24501 5.59474 3.16113 5.39241C3.07726 5.19008 3.03409 4.9732 3.03409 4.75418C3.03409 4.53515 3.07726 4.31827 3.16113 4.11594C3.24501 3.91361 3.36794 3.7298 3.5229 3.57501C3.67769 3.42005 3.8615 3.29712 4.06383 3.21324C4.26616 3.12937 4.48304 3.0862 4.70207 3.0862C4.92109 3.0862 5.13797 3.12937 5.3403 3.21324C5.54263 3.29712 5.72644 3.42005 5.88123 3.57501L5.93123 3.62501C6.12763 3.81712 6.37708 3.946 6.64741 3.99501C6.91774 4.04403 7.19655 4.01094 7.4479 3.90001H7.51457C7.76104 3.79437 7.97125 3.61897 8.11931 3.3954C8.26737 3.17182 8.34683 2.90983 8.3479 2.64168V2.50001C8.3479 2.05798 8.52349 1.63406 8.83606 1.3215C9.14862 1.00894 9.57254 0.833344 10.0146 0.833344C10.4566 0.833344 10.8805 1.00894 11.1931 1.3215C11.5056 1.63406 11.6812 2.05798 11.6812 2.50001V2.57501C11.6823 2.84317 11.7618 3.10516 11.9098 3.32873C12.0579 3.55231 12.2681 3.72771 12.5146 3.83334C12.7659 3.94427 13.0447 3.97736 13.3151 3.92835C13.5854 3.87933 13.8348 3.75046 14.0312 3.55834L14.0812 3.50834C14.236 3.35338 14.4198 3.23045 14.6222 3.14658C14.8245 3.0627 15.0414 3.01953 15.2604 3.01953C15.4794 3.01953 15.6963 3.0627 15.8986 3.14658C16.101 3.23045 16.2848 3.35338 16.4396 3.50834C16.5945 3.66313 16.7175 3.84695 16.8013 4.04928C16.8852 4.25161 16.9284 4.46848 16.9284 4.68751C16.9284 4.90654 16.8852 5.12341 16.8013 5.32574C16.7175 5.52807 16.5945 5.71189 16.4396 5.86668L16.3896 5.91668C16.1975 6.11308 16.0686 6.36252 16.0196 6.63285C15.9705 6.90318 16.0036 7.182 16.1146 7.43334V7.50001C16.2202 7.74648 16.3956 7.95669 16.6192 8.10475C16.8428 8.25282 17.1047 8.33227 17.3729 8.33334H17.5146C17.9566 8.33334 18.3805 8.50894 18.6931 8.8215C19.0056 9.13406 19.1812 9.55798 19.1812 10C19.1812 10.442 19.0056 10.866 18.6931 11.1785C18.3805 11.4911 17.9566 11.6667 17.5146 11.6667H17.4396C17.1714 11.6677 16.9094 11.7472 16.6858 11.8953C16.4623 12.0433 16.2869 12.2535 16.1812 12.5V12.5Z" stroke="#0BA1A1" stroke-width="1.5" stroke-linecap="round" stroke-linejoin="round"/>
</g>
<defs>
<clipPath id="clip0_14_488">
<rect width="20" height="20" fill="white" transform="translate(0.0146484)"/>
</clipPath>
</defs>
</svg>
